X:114
T: Tod der Geschwister
N: Q0107F
O: Suedosteuropa, Jugoslawien, Gottschee, Buehel
R: Ballade, Tod
M: 3/4
L: 1/8
K: G
GA | B2A2G2 | A2B2AB | c2c2B2 | A4
GA | B2A2GA | B4GA | B2B2A2 | G4

@@@ Tune index: 1407
